svgs/light/j.svg

<svg xmlns="http://www.w3.org/2000/svg" viewBox="0 0 320 512"><!-- Font Awesome Pro 6.0.0-alpha2 by @fontawesome - https://fontawesome.com License - https://fontawesome.com/license (Commercial License) --><path d="M160 480C71.781 480 0 408.219 0 320V272C0 263.156 7.156 256 16 256S32 263.156 32 272V320C32 390.594 89.406 448 160 448S288 390.594 288 320V48C288 39.156 295.156 32 304 32S320 39.156 320 48V320C320 408.219 248.219 480 160 480Z"/></svg>

<svg xmlns="http://www.w3.org/2000/svg" viewBox="0 0 320 512"><!--! Font Awesome Pro 6.4.0 by @fontawesome - https://fontawesome.com License - https://fontawesome.com/license (Commercial License) Copyright 2023 Fonticons, Inc. --><path d="M304 32c8.8 0 16 7.2 16 16V320c0 88.4-71.6 160-160 160S0 408.4 0 320V272c0-8.8 7.2-16 16-16s16 7.2 16 16v48c0 70.7 57.3 128 128 128s128-57.3 128-128V48c0-8.8 7.2-16 16-16z"/></svg>
